X:281
T:Francis T Robertson
S:Learned from Judith Tait, Edinburgh, c.1995
Z:Nigel Gatherer <gatherer@argonet.co.uk>
M:4/4
L:1/8
K:A
e|A2 AB cAce|a2 ae fece|A2 AB cAce|dBcA BEGB|
A2 AB (3cBA ce|a2 ae fecA|d2 fd c2 ec|afec ec A:|
e|a2 ae fecB|Acea fecA|a2 ae fecA|Bbba geeg|
a2 ae fecB|Acea fecA|d2 fd c2 ec|afec ec A:|
<end>
<start>
